!!!COM: Beethoven, Ludwig van
!!!CDT: 1770///-1827///
!!!ODT: 1798///-1800///
!!!OTL: String Quartet No. 6 in B-flat Major, Op. 18, No. 6
!!!OPS: Op. 18
!!!ONM: No. 6
!!!OMV: Mvmt. 4
!!!OMD: La Malinconia. Adagio
!!!PDT: 1801///
!!!PPP: Vienna
!!!PPR: C. Haslinger qm Tobias
!!!ODE: Dem F&uuml;rsten von Lobkowitz gewidmet
!!!MPD: 1798///-1800///
**kern	**dynam	**kern	**dynam	**kern	**dynam	**kern	**dynam
*staff4	*staff4	*staff3	*staff3	*staff2	*staff2	*staff1	*staff1
*Icello	*Icello	*Iviola	*Iviola	*Ivioln	*Ivioln	*Ivioln	*Ivioln
*clefF4	*clefF4	*clefC3	*clefC3	*clefG2	*clefG2	*clefG2	*clefG2
*k[b-e-]	*k[b-e-]	*k[b-e-]	*k[b-e-]	*k[b-e-]	*k[b-e-]	*k[b-e-]	*k[b-e-]
*B-:	*B-:	*B-:	*B-:	*B-:	*B-:	*B-:	*B-:
*M2/4	*M2/4	*M2/4	*M2/4	*M2/4	*M2/4	*M2/4	*M2/4
*MM32	*MM32	*MM32	*MM32	*MM32	*MM32	*MM32	*MM32
=1-	=1-	=1-	=1-	=1-	=1-	=1-	=1-
!! Questo pezzo si deve trattare colla piu gran delicatezza
2r	.	4B-/	pp	4f/	pp	4dd\	.
.	.	(8B-/L	.	(8f/L	.	(8dd\L	.
.	.	8B-/J)	.	8f/J)	.	8dd\J)	.
=2	=2	=2	=2	=2	=2	=2	=2
2r	.	4B-/	.	4f/	.	4dd\	.
.	.	4r	.	(8..d/L	.	(8..b-\L	.
.	.	.	.	32f/Jkk	.	32cc\Jkk	.
=3	=3	=3	=3	=3	=3	=3	=3
2r	.	4B-/	.	8..b-\L	.	8..dd\L	.
.	.	.	.	32cc\Jkk)	.	32ee-\Jkk)	.
.	.	(8b-\L	.	(8dd\L	.	(8ff\L	.
.	.	8b-\J)	.	8dd\J)	.	8ff\J)	.
=4	=4	=4	=4	=4	=4	=4	=4
.	.	.	.	(cc#q\	.	(eenq\	.
.	.	.	.	ddq\)	.	ffq\)	.
.	.	.	.	ee-q\	.	ggq\	.
2r	.	2b-\	<	2dd\	<	2ff\	<
=5	=5	=5	=5	=5	=5	=5	=5
4BB-/	pp	4F/	pp	4d/	pp	2r	.
8BB-/L	.	(8F/L	.	(8d/L	.	.	.
8BB-/J	.	8F/J)	.	8d/J)	.	.	.
=6	=6	=6	=6	=6	=6	=6	=6
4BB-/	.	4F/	.	4d/	.	2r	.
4r	.	(8..D/L	.	(8..B-/L	.	.	.
.	.	32F/Jkk	.	32c/Jkk	.	.	.
=7	=7	=7	=7	=7	=7	=7	=7
4BB-/	.	8..B-/L	.	8..d/L	.	2r	.
.	.	32c/Jkk)	.	32e-/Jkk)	.	.	.
8B-\L	.	(8d\L	.	(8f/L	.	.	.
8B-\J	.	8d\J)	.	8f/J)	.	.	.
=8	=8	=8	=8	=8	=8	=8	=8
.	.	(c#q\	.	(enq\	.	.	.
.	.	dq\)	.	fq\)	.	.	.
.	.	enq\	.	gq\	.	.	.
2A\	.	4d\	.	2f/	.	2r	.
.	.	4c\	.	.	.	.	.
=9	=9	=9	=9	=9	=9	=9	=9
4A-\	.	4Bn/	.	4f/	pp	4dd\	pp
8A-\L	<	8Bn/L	<	(8f/L	<	(8dd\L	<
8A-\J	.	8Bn/J	.	8f/J)	.	8dd\J)	.
=10	=10	=10	=10	=10	=10	=10	=10
2G\	.	4Bn/	.	4f/	.	4dd\	.
.	.	8..f\L	.	(8..a-/L	.	(8..bn\L	.
.	.	32e-\Jkk	.	32g/Jkk	.	32cc\Jkk	.
=11	=11	=11	=11	=11	=11	=11	=11
4GG/	.	8..d\L	.	8..f/L	.	8..dd\L	.
.	.	32c\Jkk	.	32e-/Jkk)	.	32ee-\Jkk)	.
8G\L	.	8Bn/L	.	(8d/L	.	8ff\L	.
8G\J	.	8Bn/J	.	8d/J)	.	8ff\J	.
=12	=12	=12	=12	=12	=12	=12	=12
.	.	.	.	.	.	(eenq\	.
.	.	.	.	.	.	ff#q\)	.
.	.	.	.	.	.	ggq\	.
2F#\	pp	2Bn/	pp	2d/	pp	2ff#\	pp
=13	=13	=13	=13	=13	=13	=13	=13
.	.	.	.	(f#q\	.	.	.
.	.	.	.	gq\)	.	.	.
.	.	.	.	aq\	.	.	.
2En\	f	2A#/	f	2g/	f	2c#/	f
=14	=14	=14	=14	=14	=14	=14	=14
.	.	.	.	.	.	(ggq\	.
.	.	.	.	.	.	aaq\)	.
.	.	.	.	.	.	bb-q\	.
2f#\	p	2cc\	p	2ee-\	p	2aa\	p
=15	=15	=15	=15	=15	=15	=15	=15
.	.	.	.	(aq\	.	.	.
.	.	.	.	bnq\)	.	.	.
.	.	.	.	ccq\	.	.	.
2G#\	f	2d\	f	2bn\	f	2f/	f
=16	=16	=16	=16	=16	=16	=16	=16
.	.	.	.	.	.	(bbnq\	.
.	.	.	.	.	.	cccq\)	.
.	.	.	.	.	.	dddq\	.
2a\	p	2ee-\	p	2ff\	p	2ccc\	p
=17	=17	=17	=17	=17	=17	=17	=17
4C/	pp	4A/	pp	4d#/	pp	4f#/	pp
8C/L	.	8A/L	.	(8d#/L	.	(8f#/L	.
8C/J	.	8A/J	.	8d#/J)	.	8f#/J)	.
=18	=18	=18	=18	=18	=18	=18	=18
[2BBn/	.	[4A/	.	4d#/	.	4f#/	.
.	.	8..A/L]	.	(8..Bn/L	.	(8..d#/L	.
.	.	32G#/Jkk	.	32c#/Jkk	.	32en/Jkk	.
=19	=19	=19	=19	=19	=19	=19	=19
4BB/]	.	8..F#/L	.	8..d#/L	.	8..f#/L	.
.	.	32En/Jkk	.	32en/Jkk)	.	32g#/Jkk)	.
8BBn/L	.	8D#/L	.	(8f#/L	.	(8a/L	.
8BBn/J	.	8D#/J	.	8f#/J)	.	8a/J)	.
=20	=20	=20	=20	=20	=20	=20	=20
.	.	.	.	(enq\	.	(g#q\	.
.	.	.	.	f#q\)	.	aq\)	.
.	.	.	.	g#q\	.	bnq\	.
4.BBn/	.	4.D#/	.	4.f#/	.	2a/	.
8r	.	8r	.	8Bn/	pp	.	.
=21	=21	=21	=21	=21	=21	=21	=21
2r	.	4en\	pp	(4g/	.	2r	.
.	.	4A#/	.	4f#/	.	.	.
=22	=22	=22	=22	=22	=22	=22	=22
2r	.	4Bn/	.	4d/	.	4r	.
.	.	8E#/L	.	8c#/L	.	8r	.
.	.	8E#/J	.	8g#/J)	.	8cc#\	pp
=23	=23	=23	=23	=23	=23	=23	=23
2r	.	4A/	.	(4c#/	.	(4ff#\	.
.	.	4G#/	.	4d#/	.	4b#\	.
=24	=24	=24	=24	=24	=24	=24	=24
4r	.	4En/	.	4G#/	.	4cc#\	.
8r	.	4D#/	.	8A#/L)	.	4f##/)	.
8E-\	p	.	.	8d#/J	.	.	.
=25	=25	=25	=25	=25	=25	=25	=25
4A-\	<	4e-\	<	(4cc-\	<	4r	.
4D\	<	4f\	<	4b-\	<	8r	.
.	.	.	.	.	.	8b-\	.
=26	=26	=26	=26	=26	=26	=26	=26
4E-\	.	4B-/	.	4g-/	.	(4gg-\	<
4AA/	.	4c\	.	4f/	.	4ff\	<
=27	=27	=27	=27	=27	=27	=27	=27
4BB-/	.	4F/	.	4d-/	.	4dd-\	.
4EEn/	.	4G/	.	4c/	.	4cc\	.
=28	=28	=28	=28	=28	=28	=28	=28
4FF/	.	4C/ 4c/	.	4f/	.	4a-/	.
[4CC/	.	[4C/ [4c/	.	(4en/)	.	[4g/)	.
=29	=29	=29	=29	=29	=29	=29	=29
4CC/]	.	4C/] 4c/]	>	4e-/)	>	4g/]	>
.	.	.	.	.	.	(gq\	.
.	.	.	.	.	.	aq\)	.
.	.	.	.	.	.	b-q\	.
4r	.	4e-\	.	4g-/	.	4a/	p
=30	=30	=30	=30	=30	=30	=30	=30
E-q\	.	G-q\	.	(cq\	.	(aq\	.
D-q\	.	Fq\	.	d-q\)	.	b-q\)	.
Cq\	.	E-q\	.	e-q\	.	ccq\	.
4D-\	f	4F/	f	4d-/	f	4b-\	f
.	.	.	.	.	.	(aq\	.
.	.	.	.	.	.	bnq\)	.
.	.	.	.	.	.	ccq\	.
4r	.	4f\	p	4a-/	p	4bn\	p
=31	=31	=31	=31	=31	=31	=31	=31
Fq\	.	A-q\	.	(dq\	.	(bnq\	.
E-q\	.	Gq\	.	e-q\)	.	ccq\)	.
Dq\	.	Fq\	.	fq\	.	ddq\	.
4E-\	f	4G/	f	4e-/	f	4cc\	f
.	.	.	.	.	.	bnq\	.
.	.	.	.	.	.	cc#q\	.
.	.	.	.	.	.	ddq\	.
4r	.	4g\	p	4b-\	p	4cc#\	p
=32	=32	=32	=32	=32	=32	=32	=32
Gq\	.	B-q\	.	(e-q\	.	(cc#q\	.
Fq\	.	Aq\	.	fq\)	.	ddq\)	.
Enq\	.	Gq\	.	gq\	.	eenq\	.
4F\	f	4A/	f	4f/	f	4dd\	f
.	.	.	.	.	.	(cc#q\	.
.	.	.	.	.	.	ddq\)	.
.	.	.	.	.	.	ee-q\	.
4r	.	8f#\L	p	(8cc\L	p	8dd\L	p
.	.	8f#\J	.	8a\J)	.	&(8dd\J&)	.
=33	=33	=33	=33	=33	=33	=33	=33
4r	.	4g\	.	(4dd\	.	(4bb-\	.
8r	.	4c#\	.	4een\	.	4a\ 4aa\	.
8AA/	.	.	.	.	.	.	.
=34	=34	=34	=34	=34	=34	=34	=34
8D/L	.	4d\	.	4a/	.	4ff\	.
8r	.	.	.	.	.	.	.
8r	.	4G#/	.	4bn\)	.	4en/) 4een/	.
8EEn/J	.	.	.	.	.	.	.
=35	=35	=35	=35	=35	=35	=35	=35
4AA/	p	4A/	p	(4en/	p	(4cc\	p
4DD/	.	4d\	.	4f/	.	[4b-\)	.
=36	=36	=36	=36	=36	=36	=36	=36
2DD#/	.	2c\	.	2f#/)	.	(4b-\]	.
.	.	.	.	.	.	4a/)	.
=37	=37	=37	=37	=37	=37	=37	=37
DD#q\	.	.	.	.	.	.	.
EEnq\	.	.	.	.	.	.	.
FFq\	.	.	.	.	.	.	.
2EEn/	pp	4r	.	4r	.	4r	.
.	.	4c\	pp	4en/	pp	4a/	pp
=38	=38	=38	=38	=38	=38	=38	=38
EEnq\	.	.	.	.	.	.	.
FFq\	.	.	.	.	.	.	.
GGq\	.	.	.	.	.	.	.
2FF/	<	4r	.	4r	.	4r	.
.	.	4A/	<	4e-/	<	4cc\	<
=39	=39	=39	=39	=39	=39	=39	=39
EE#q\	.	.	.	.	.	.	.
FF#q\	.	.	.	.	.	.	.
GGq\	.	.	.	.	.	.	.
2FF#/	<	4r	<	4r	<	4r	<
.	.	4cc\	.	4a/	.	4ee-\	.
=40	=40	=40	=40	=40	=40	=40	=40
FF#q\	.	.	.	.	.	.	.
GGq\	.	.	.	.	.	.	.
AAq\	.	.	.	.	.	.	.
2GG/	.	4r	.	4r	.	4r	.
.	.	4g\	.	4ee-\	.	4ccc\	.
=41	=41	=41	=41	=41	=41	=41	=41
GGq\	.	.	.	.	.	.	.
AA-q\	.	.	.	.	.	.	.
BB-q\	.	.	.	.	.	.	.
2AA-/	.	4r	.	4r	.	4r	.
.	.	4g-\	.	4cc\	.	4eee-\	.
=42	=42	=42	=42	=42	=42	=42	=42
GG#q\	.	.	.	.	.	.	.
AAq\	.	.	.	.	.	.	.
BB-q\	.	.	.	.	.	.	.
4AA/	ff	4r	.	4r	.	4r	.
4A\	.	4c\	ff	4e-/ 4ee-/	ff	4ggg-\	ff
=43	=43	=43	=43	=43	=43	=43	=43
4B-\	p	4B-/	p	(4d-/	p	(4f/	p
8E-\L	.	8B-/L	.	8c/L	.	8g-/L	.
8G-\J	.	8B-/J	.	8c/J)	.	8e-/J)	.
=44	=44	=44	=44	=44	=44	=44	=44
4F\	pp	4B-/	pp	4d-/	pp	4f/	pp
16FF/	.	16A/	.	16c/	.	16f/	.
==	==	==	==	==	==	==	==
*-	*-	*-	*-	*-	*-	*-	*-
!!!ENC: Craig Stuart Sapp
!!!END: 2006/02/13/
